X:1
T:Title
%%score { 1 | 2 }
L:1/8
M:4/4
K:Eb
V:1 treble nm="Grand Piano"
V:2 bass 
V:1
 z4 z2 z[Q:1/4=90] E | GGG_G =GBBG | [EG][DF] [DF]>[_D=E] [=DF]3 [_EG] | %3
 [DA][DA][DA][DG] [DA][Dc][Dc][Dc] | cB B>G B3 B | [Ge][Ge][Bd][Ac] [GB][GB][EG][GB] | %6
 cc e>G [DF]3 E | GGG_G =G[GB][GB][EG] |[M:7/8] [DF][DF][DG]>[DF] E3 |[M:1/8] [GB] | %10
[M:4/4] cA A/B/c [GB]3 [EG] | [EG][DF][GB][FA] G3 E | GGG_G =G[GB][GB][EG] | %13
[M:7/8] [DF][DF][EG]>[DF] E3 |] %14
V:2
 z4 z2 z [E,G,] | [E,B,E][E,B,E][E,B,E][E,=A,E] [E,B,E][E,G,E][E,G,E][E,B,E] | %2
 [B,,B,][B,,B,] [B,,B,]>[B,,B,] [B,,B,]3 [B,,B,] | %3
 [B,,B,][B,,B,][B,,B,][B,,B,] [B,,B,][B,,B,][B,,B,][B,,A,] | %4
 [E,A,E][E,G,E] [E,G,E]>[E,B,E] [E,G,E]3 [E,G,E] | [E,B,][E,B,][E,B,][E,C] [E,E][E,E][E,B,][E,E] | %6
 [A,EA][A,EA][K:bass] [G,B,E]>[E,B,E] [B,,B,]3 [E,G,] | %7
 [E,B,E][E,B,E][E,B,E][E,=A,E] [E,B,E][E,E][E,E][E,B,] | %8
[M:7/8] [B,,B,][B,,B,][B,,B,]>[B,,A,] [E,G,]3 |[M:1/8] [E,E] | %10
[M:4/4][K:treble] [A,EA][A,CE][A,CE][A,EA][K:bass] [E,E]3 [E,B,] | %11
 [B,,B,][B,,B,][B,,B,][B,,B,] [E,B,E]3 [E,G,] | %12
 [E,B,E][E,B,E][E,B,E][E,=A,E] [E,B,E][E,E][E,E][E,B,] | %13
[M:7/8] [B,,B,][B,,B,][B,,B,]>[B,,A,] [E,G,]3 |] %14

